X: 149127
T: CALEDONIAN MARCH
Q: "Slow."
%R: march
B: James Kerr "Merry Melodies" v.1 p.49 s.1 #27
Z: 2016 John Chambers <jc:trillian.mit.edu>
M: C
L: 1/8
K: D
(F>G) |\
A>BA>F A2(d>e) | f>ef>g f2(ed) |\
B>cd>B AFEF | A2A>A A2(F>G) |\
A>BA>F A2(d>e) | f>ef>a gfed |\
B>cd>B AFEF | D2D>D D2 :|
|: (f>g) |\
a>gf>g a2A2 | d>cd>e f2F2 |\
G>FG>A B>cd>B | A>FE>E E2(F>G) |\
A>BA>F A2(d>e) | f>ef>a gfed |\
B>cd>B A>FE>F | D2D>D D2 |]

% %newpage
%%sep 1 1 500
%%sep 1 1 500
%%center WALTZES AND POLKAS

%%sep 1 1 500
%%sep 1 1 500

